X:1
T:Kis karácsony, nagy karácsony
C:Traditional
Z:Public Domain
L:1/4
M:3/4
K:D
V:1 treble 
%%MIDI program 52
V:1
"D" D/A,/ D F |"G" E/D/"A" E E |"D" D/A,/ D F |"Em" E/D/"A" E E |"D" F/G/ A D |"Em" G/F/"A" E E | %6
w: Kis ka- rá- csony,|nagy ka- rá- csony,|ki- sült- e már|a ka- lá- csom?|Ha ki- sült már,|i- de vé- le,|
"D" F/G/ A D |"A" F/E/"D" D D |] %8
w: hadd e- gyem meg|me- le- gé- be!|

